img/service-1.svg

<svg width="60" height="60" viewBox="0 0 60 60" fill="none" xmlns="http://www.w3.org/2000/svg">
<circle cx="30.0002" cy="30" r="30" fill="#CFDAFF"/>
<circle cx="30.0002" cy="30" r="30" fill="#4B61C3"/>
<path d="M21.4436 19.2773H19.9363C19.4603 19.2773 19.0759 19.6618 19.0759 20.1378C19.0759 20.6139 19.4603 20.9983 19.9363 20.9983H21.4436C21.9196 20.9983 22.304 20.6139 22.304 20.1378C22.304 19.6618 21.9196 19.2773 21.4436 19.2773Z" fill="white"/>
<path d="M36.5591 19.2773H24.33C23.854 19.2773 23.4695 19.6618 23.4695 20.1378C23.4695 20.6139 23.854 20.9983 24.33 20.9983H36.5652C37.0412 20.9983 37.4256 20.6139 37.4256 20.1378C37.4256 19.6618 37.0351 19.2773 36.5591 19.2773Z" fill="white"/>
<path d="M46.4388 32.0382C42.814 30.6956 41.1786 28.7732 40.4951 27.8944V18.4899C40.4951 17.1168 39.3784 16 38.0054 16H18.49C17.117 16 16.0002 17.1168 16.0002 18.4899V38.0067C16.0002 39.3799 17.117 40.4967 18.49 40.4967H32.1227C32.5499 44.3597 38.5424 46.691 39.2502 46.9473C39.4516 47.0145 39.6469 47.0206 39.8483 46.9473C40.5806 46.6788 47.0002 44.1828 47.0002 40.0573V32.8438C47.0002 32.4837 46.7745 32.1663 46.4388 32.0382ZM17.7211 18.4899C17.7211 18.0689 18.0628 17.7271 18.4839 17.7271H37.9993C38.4203 17.7271 38.7621 18.0689 38.7621 18.4899V22.5483H17.7211V18.4899ZM32.0983 32.8438V38.7696H18.49C18.0689 38.7696 17.7272 38.4278 17.7272 38.0067V33.9178H19.2162C19.6922 33.9178 20.0766 33.5334 20.0766 33.0573C20.0766 32.5813 19.6922 32.1969 19.2162 32.1969H17.7211V30.8481H21.5168C21.9928 30.8481 22.3772 30.4637 22.3772 29.9876C22.3772 29.5116 21.9928 29.1271 21.5168 29.1271H17.7211V24.2754H38.7682V27.6747C38.7499 27.6991 38.7376 27.7113 38.7193 27.7357C38.1152 28.523 36.5103 30.6101 32.6536 32.0382C32.318 32.1663 32.0983 32.4837 32.0983 32.8438ZM45.2794 40.0573C45.2794 42.413 41.3922 44.4757 39.5493 45.2202C37.7063 44.4757 33.8191 42.4252 33.8191 40.0573V33.4357C36.9374 32.1663 38.6522 30.5125 39.5493 29.4567C40.4463 30.5125 42.155 32.1663 45.2794 33.4357V40.0573Z" fill="white"/>
</svg>

<svg width="60" height="60" fill="none" xmlns="http://www.w3.org/2000/svg"><circle cx="30" cy="30" r="30" fill="#CFDAFF"/><circle cx="30" cy="30" r="30" fill="#4B61C3"/><path d="M21.444 19.277h-1.508a.86.86 0 100 1.721h1.508a.86.86 0 100-1.72zM36.56 19.277H24.33a.86.86 0 100 1.721h12.235a.86.86 0 10-.006-1.72z" fill="#fff"/><path d="M46.439 32.038c-3.625-1.342-5.26-3.265-5.944-4.144V18.49a2.492 2.492 0 00-2.49-2.49H18.49A2.492 2.492 0 0016 18.49v19.517a2.493 2.493 0 002.49 2.49h13.633c.427 3.863 6.42 6.194 7.127 6.45a.875.875 0 00.598 0c.733-.268 7.152-2.764 7.152-6.89v-7.213a.864.864 0 00-.561-.806zM17.72 18.49c0-.421.342-.763.763-.763h19.515c.421 0 .763.342.763.763v4.058h-21.04V18.49zm14.377 14.354v5.926H18.49a.763.763 0 01-.763-.763v-4.09h1.49a.86.86 0 100-1.72H17.72v-1.349h3.796a.86.86 0 100-1.72H17.72v-4.853h21.047v3.4c-.018.024-.03.036-.049.06-.604.788-2.209 2.875-6.065 4.303a.859.859 0 00-.556.806zm13.181 7.213c0 2.356-3.887 4.419-5.73 5.163-1.843-.744-5.73-2.795-5.73-5.163v-6.621c3.118-1.27 4.833-2.924 5.73-3.98.897 1.056 2.606 2.71 5.73 3.98v6.621z" fill="#fff"/></svg>
